assets/awsorganizationsaccount/original.svg

<svg height="48" viewBox="0 0 48 48" width="48" xmlns="http://www.w3.org/2000/svg"><path d="m32 28c3.309 0 6 2.691 6 6s-2.691 6-6 6-6-2.691-6-6 2.691-6 6-6m0 14c4.411 0 8-3.589 8-8s-3.589-8-8-8-8 3.589-8 8 3.589 8 8 8m2-32.764 4.882 9.764h-9.764zm-6.5 11.764h13a1 1 0 0 0 .895-1.447l-6.5-13c-.34-.678-1.45-.678-1.79 0l-6.5 13a1 1 0 0 0 .895 1.447m-18.5 8h11v-11h-11zm-1 2h13a1 1 0 0 0 1-1v-13a1 1 0 0 0 -1-1h-13a1 1 0 0 0 -1 1v13a1 1 0 0 0 1 1m-4 13h40v-40h-40zm41-42h-42a1 1 0 0 0 -1 1v42a1 1 0 0 0 1 1h42a1 1 0 0 0 1-1v-42a1 1 0 0 0 -1-1" fill="#e7157b" fill-rule="evenodd"/></svg>

<svg xmlns="http://www.w3.org/2000/svg" width="48" height="48" viewBox="0 0 48 48"><title>Icon-Resource/Management-Governance/Res_AWS-Organizations_Account_48</title><g id="Icon-Resource/Management-Governance/Res_AWS-Organizations_Account_48" fill="none" fill-rule="evenodd" stroke="none" stroke-width="1"><path id="Fill-1" fill="#e7157b" d="M32 28c3.309 0 6 2.691 6 6s-2.691 6-6 6-6-2.691-6-6 2.691-6 6-6m0 14c4.411 0 8-3.589 8-8s-3.589-8-8-8-8 3.589-8 8 3.589 8 8 8m2-32.764L38.882 19h-9.764zM27.5 21h13a1 1 0 0 0 .895-1.447l-6.5-13c-.34-.678-1.45-.678-1.79 0l-6.5 13A1 1 0 0 0 27.5 21M9 29h11V18H9zm-1 2h13a1 1 0 0 0 1-1V17a1 1 0 0 0-1-1H8a1 1 0 0 0-1 1v13a1 1 0 0 0 1 1M4 44h40V4H4zM45 2H3a1 1 0 0 0-1 1v42a1 1 0 0 0 1 1h42a1 1 0 0 0 1-1V3a1 1 0 0 0-1-1"/></g></svg>
